lib/images/logo_seo.svg

<svg width="141" height="24" viewBox="0 0 141 24" fill="none" xmlns="http://www.w3.org/2000/svg">
<g clip-path="url(#clip0)">
<path d="M20.79 12.41C17.5778 16.8311 13.6426 20.6785 9.14998 23.79C8.24998 24.4 7.72999 23.56 8.26999 22.88C11.6707 18.6256 15.5798 14.8038 19.91 11.5C20.66 11 21.26 11.74 20.79 12.41ZM16.59 8.05998C17.15 7.27998 16.64 6.48998 15.71 7.14998C15.15 7.53998 6.34998 15.37 4.70998 17.07C3.10998 15.69 1.41998 14.25 1.01998 13.93C0.891169 13.8203 0.724188 13.7662 0.555541 13.7793C0.386894 13.7924 0.230298 13.8717 0.119984 14C0.0257874 14.1159 -0.0256348 14.2606 -0.0256348 14.41C-0.0256348 14.5593 0.0257874 14.7041 0.119984 14.82C1.30342 16.4805 2.59982 18.0576 3.99998 19.54C4.16752 19.7644 4.41634 19.9141 4.69303 19.9571C4.96973 20.0001 5.25226 19.9329 5.47998 19.77L5.61998 19.65C9.72396 16.236 13.4066 12.3453 16.59 8.05998ZM4.84998 11.06C7.54879 9.05874 10.0805 6.84144 12.42 4.42998C12.6239 4.22563 12.7385 3.9487 12.7385 3.65998C12.7385 3.37126 12.6239 3.09433 12.42 2.88998L12.36 2.83998C12.09 2.64998 9.46999 0.349979 9.17999 0.139979C8.57998 -0.280021 7.86999 0.309979 8.26999 1.02998C8.66998 1.74998 9.38999 2.88998 9.82998 3.57998C9.45998 3.90998 4.51998 9.49998 3.99998 10.19C3.47998 10.88 3.99998 11.71 4.87998 11.1L4.84998 11.06Z" fill="#FF6200"/>
<path d="M27.28 5.54993H30.15V11.3099L35.42 5.54993H38.88L33.58 11.1399L39.12 18.7199H35.68L31.68 13.1199L30.14 14.6999V18.6999H27.28V5.54993ZM45.87 5.45993H48.51L54.08 18.7199H51.08L49.9 15.7699H44.4L43.21 18.7199H40.29L45.87 5.45993ZM48.87 13.2099L47.15 8.93993L45.42 13.2099H48.87ZM55.6 12.2099C55.5881 11.3274 55.7502 10.4512 56.077 9.63135C56.4037 8.81148 56.8888 8.06402 57.5045 7.43163C58.1201 6.79925 58.8543 6.29434 59.6652 5.94574C60.476 5.59713 61.3475 5.41167 62.23 5.39993H62.42C63.3505 5.35037 64.2817 5.48472 65.1602 5.7953C66.0387 6.10587 66.8474 6.58658 67.54 7.20993L65.74 9.40993C64.8409 8.51018 63.622 8.0032 62.35 7.99993C61.3119 8.05178 60.3362 8.51179 59.6357 9.27975C58.9352 10.0477 58.5665 11.0614 58.61 12.0999C58.5442 13.1378 58.8925 14.1595 59.5785 14.9411C60.2645 15.7227 61.2324 16.2006 62.27 16.2699H62.55C63.5109 16.2984 64.4561 16.0219 65.25 15.4799V13.6299H62.37V11.1299H68V16.8499C66.467 18.207 64.4874 18.9511 62.44 18.9399C61.5805 18.9803 60.7214 18.8508 59.9118 18.559C59.1023 18.2672 58.3582 17.8187 57.7221 17.2393C57.086 16.6598 56.5702 15.9606 56.2044 15.1817C55.8386 14.4028 55.6298 13.5595 55.59 12.6999C55.58 12.5234 55.58 12.3465 55.59 12.1699L55.6 12.2099ZM76.15 5.45993H78.79L84.37 18.7199H81.37L80.18 15.7699H74.68L73.5 18.7199H70.58L76.15 5.45993ZM79.15 13.2099L77.43 8.93993L75.71 13.2099H79.15ZM87.3 5.54993H93.24C93.931 5.5064 94.6236 5.60263 95.2765 5.83286C95.9294 6.0631 96.5292 6.42262 97.04 6.88993C97.4157 7.29072 97.7074 7.7626 97.8981 8.2778C98.0887 8.79301 98.1744 9.34113 98.15 9.88993C98.2012 10.785 97.9568 11.6721 97.4545 12.4146C96.9522 13.1572 96.2198 13.7142 95.37 13.9999L98.55 18.6999H95.21L92.42 14.4999H90.17V18.7199H87.31L87.3 5.54993ZM93.07 11.9999C94.46 11.9999 95.26 11.2499 95.26 10.1399C95.26 8.89993 94.41 8.25993 93.01 8.25993H90.17V11.9999H93.07ZM101.81 5.59993H104.67V18.7199H101.81V5.59993Z" fill="#233241"/>
<path d="M110.81 16.43C111.679 16.9552 112.674 17.2352 113.69 17.24C115.33 17.24 116.3 16.38 116.3 15.12C116.3 13.86 115.63 13.28 113.94 12.65C111.94 11.93 110.65 10.86 110.65 9.11998C110.65 7.17998 112.26 5.73998 114.65 5.73998C115.602 5.70865 116.547 5.91485 117.4 6.33998L117 7.65998C116.28 7.26559 115.471 7.06245 114.65 7.06998C112.93 7.06998 112.29 8.06998 112.29 8.92998C112.29 10.09 113.05 10.66 114.77 11.32C116.88 12.15 117.94 13.17 117.94 14.99C117.94 16.81 116.53 18.58 113.58 18.58C112.468 18.5914 111.371 18.3122 110.4 17.77L110.81 16.43ZM126.58 12.55H121.75V17.05H127.15V18.39H120.15V5.93998H126.89V7.27998H121.77V11.22H126.6L126.58 12.55ZM139.88 12.04C139.88 16.31 137.27 18.59 134.1 18.59C130.93 18.59 128.5 16.04 128.5 12.27C128.5 8.32998 130.94 5.72998 134.27 5.72998C137.6 5.72998 139.88 8.33998 139.88 12V12.04ZM130.2 12.24C130.2 14.9 131.65 17.24 134.2 17.24C136.75 17.24 138.2 14.9 138.2 12.07C138.2 9.58998 136.91 6.99998 134.2 6.99998C131.49 6.99998 130.2 9.50998 130.2 12.24Z" fill="#233241"/>
</g>
<defs>
<clipPath id="clip0">
<rect width="140.13" height="24" fill="white"/>
</clipPath>
</defs>
</svg>

<svg width="141" height="24" fill="none" xmlns="http://www.w3.org/2000/svg"><g clip-path="url(#clip0)"><path d="M20.79 12.41A48.571 48.571 0 019.15 23.79c-.9.61-1.42-.23-.88-.91A66.688 66.688 0 0119.91 11.5c.75-.5 1.35.24.88.91zm-4.2-4.35c.56-.78.05-1.57-.88-.91-.56.39-9.36 8.22-11 9.92-1.6-1.38-3.29-2.82-3.69-3.14a.64.64 0 00-.9.07.65.65 0 000 .82A44.415 44.415 0 004 19.54a1.07 1.07 0 001.48.23l.14-.12A67.21 67.21 0 0016.59 8.06zm-11.74 3a62 62 0 007.57-6.63 1.09 1.09 0 000-1.54l-.06-.05C12.09 2.65 9.47.35 9.18.14c-.6-.42-1.31.17-.91.89s1.12 1.86 1.56 2.55C9.46 3.91 4.52 9.5 4 10.19c-.52.69 0 1.52.88.91l-.03-.04z" fill="#FF6200"/><path d="M27.28 5.55h2.87v5.76l5.27-5.76h3.46l-5.3 5.59 5.54 7.58h-3.44l-4-5.6-1.54 1.58v4h-2.86V5.55zm18.59-.09h2.64l5.57 13.26h-3l-1.18-2.95h-5.5l-1.19 2.95h-2.92l5.58-13.26zm3 7.75l-1.72-4.27-1.73 4.27h3.45zm6.73-1a6.72 6.72 0 016.63-6.81h.19a7.09 7.09 0 015.12 1.81l-1.8 2.2A4.81 4.81 0 0062.35 8a3.94 3.94 0 00-3.74 4.1 3.93 3.93 0 003.66 4.17h.28a4.55 4.55 0 002.7-.79v-1.85h-2.88v-2.5H68v5.72a8.32 8.32 0 01-5.56 2.09 6.55 6.55 0 01-6.85-6.24 4.685 4.685 0 010-.53l.01.04zm20.55-6.75h2.64l5.58 13.26h-3l-1.19-2.95h-5.5l-1.18 2.95h-2.92l5.57-13.26zm3 7.75l-1.72-4.27-1.72 4.27h3.44zm8.15-7.66h5.94a5.15 5.15 0 013.8 1.34 4.12 4.12 0 011.11 3A4.09 4.09 0 0195.37 14l3.18 4.7h-3.34l-2.79-4.2h-2.25v4.22h-2.86L87.3 5.55zM93.07 12c1.39 0 2.19-.75 2.19-1.86 0-1.24-.85-1.88-2.25-1.88h-2.84V12h2.9zm8.74-6.4h2.86v13.12h-2.86V5.6zm9 10.83a5.619 5.619 0 002.88.81c1.64 0 2.61-.86 2.61-2.12 0-1.26-.67-1.84-2.36-2.47-2-.72-3.29-1.79-3.29-3.53 0-1.94 1.61-3.38 4-3.38a5.742 5.742 0 012.75.6l-.4 1.32a4.8 4.8 0 00-2.35-.59c-1.72 0-2.36 1-2.36 1.86 0 1.16.76 1.73 2.48 2.39 2.11.83 3.17 1.85 3.17 3.67 0 1.82-1.41 3.59-4.36 3.59a6.39 6.39 0 01-3.18-.81l.41-1.34zm15.77-3.88h-4.83v4.5h5.4v1.34h-7V5.94h6.74v1.34h-5.12v3.94h4.83l-.02 1.33zm13.3-.51c0 4.27-2.61 6.55-5.78 6.55-3.17 0-5.6-2.55-5.6-6.32 0-3.94 2.44-6.54 5.77-6.54 3.33 0 5.61 2.61 5.61 6.27v.04zm-9.68.2c0 2.66 1.45 5 4 5s4-2.34 4-5.17c0-2.48-1.29-5.07-4-5.07s-4 2.51-4 5.24z" fill="#233241"/></g><defs><clipPath id="clip0"><path fill="#fff" d="M0 0h140.13v24H0z"/></clipPath></defs></svg>
